;START_OF_HEADER
;HEADER_VERSION:0.1
;FLAVOR:Griffin
;GENERATOR.NAME:Cura_SteamEngine
;GENERATOR.VERSION:master
;GENERATOR.BUILD_DATE:2020-12-08
;TARGET_MACHINE.NAME:Ultimaker S3
;EXTRUDER_TRAIN.1.INITIAL_TEMPERATURE:210
;EXTRUDER_TRAIN.1.MATERIAL.VOLUME_USED:0
;EXTRUDER_TRAIN.1.MATERIAL.GUID:03f24266-0291-43c2-a6da-5211892a2699
;EXTRUDER_TRAIN.1.NOZZLE.DIAMETER:0.4
;EXTRUDER_TRAIN.1.NOZZLE.NAME:unknown
;BUILD_PLATE.TYPE:glass
;BUILD_PLATE.INITIAL_TEMPERATURE:60
;PRINT.TIME:9999
;PRINT.GROUPS:1
;PRINT.SIZE.MIN.X:0
;PRINT.SIZE.MIN.Y:0
;PRINT.SIZE.MIN.Z:0
;PRINT.SIZE.MAX.X:0.01
;PRINT.SIZE.MAX.Y:0.01
;PRINT.SIZE.MAX.Z:0.01
;END_OF_HEADER
;Generated with Cura_SteamEngine 4.7.1
T1
M82 ;absolute extrusion mode

M109 S210
G280 S1
G0 Z20.001
G1 F1500 E-6.5
;LAYER_COUNT:1
;LAYER:0
M107
M104 T1 S205
M104 T1 S195
M204 S625
M205 X8.33 Y8.33
G1 F600 Z2.2
;G0 F2571.4 X158.924 Y125.397 Z2.2
G0 F2571.4 X15 Y12 Z2.2
M104 S195
M204 S500
M205 X5 Y5
;TYPE:FILL
G1 F600 Z0.3
G1 F1500 E6.5
G0 F700 X79.44 Y86.13
G1 F700 X106.39 Y86.13 E6.92445
G1 F700 X106.39 Y115.07 E7.38222
G1 F700 X79.44 Y115.07 E7.80667
G1 F700 X79.44 Y86.13 E8.26444
G0 F700 X79.84 Y86.53
G1 F700 X105.99 Y86.53 E8.68889
G1 F700 X105.99 Y114.67 E9.14666
G1 F700 X79.84 Y114.67 E9.57111
G1 F700 X79.84 Y86.53 E10.02887
G0 F700 X80.24 Y86.93
G1 F700 X105.59 Y86.93 E10.45332
G1 F700 X105.59 Y114.27 E10.91109
G1 F700 X80.24 Y114.27 E11.33554
G1 F700 X80.24 Y86.93 E11.79331
G0 F700 X82.44 Y89.13
G1 F700 X103.39 Y89.13 E12.1173
G1 F700 X103.39 Y112.07 E12.47461
G1 F700 X82.44 Y112.07 E12.7986
G1 F700 X82.44 Y89.13 E13.15591
G0 F700 X82.84 Y89.53
G1 F700 X102.99 Y89.53 E13.4799
G1 F700 X102.99 Y111.67 E13.83721
G1 F700 X82.84 Y111.67 E14.1612
G1 F700 X82.84 Y89.53 E14.51851
G0 F700 X83.24 Y89.93
G1 F700 X102.59 Y89.93 E14.8425
G1 F700 X102.59 Y111.27 E15.19981
G1 F700 X83.24 Y111.27 E15.5238
G1 F700 X83.24 Y89.93 E15.88111

G1 F1500 E13.88111
G0 F700 X102.59 Y90.26
G1 F1500 E15.88111
G1 F700 X102.56 Y90.23 E15.88181
G1 F700 X102.36 Y89.96 E15.88738
G1 F700 X102.34 Y89.93 E15.88808
G0 F700 X101.84 Y89.93
G1 F700 X101.91 Y90.03 E15.89017
G1 F700 X102.51 Y90.83 E15.90689
G1 F700 X102.59 Y90.93 E15.90898
G1 F1500 E13.90898
G0 F700 X102.59 Y91.59
G1 F1500 E15.90898
G1 F700 X102.46 Y91.43 E15.91246
G1 F700 X101.46 Y90.1 E15.94033
G1 F700 X101.34 Y89.93 E15.94381
G0 F700 X100.84 Y89.93
G1 F700 X101.01 Y90.16 E15.94869
G1 F700 X102.41 Y92.02 E15.98769
G1 F700 X102.59 Y92.26 E15.99257
G1 F1500 E13.99257
G0 F700 X102.59 Y92.92
G1 F1500 E15.99257
G1 F700 X102.36 Y92.62 E15.99884
G1 F700 X100.56 Y90.23 E16.049
G1 F700 X100.34 Y89.93 E16.05527
G0 F700 X99.83 Y89.93
G1 F700 X100.11 Y90.3 E16.06293
G1 F700 X102.31 Y93.22 E16.12424
G1 F700 X102.59 Y93.58 E16.1319
G1 F1500 E14.1319
G0 F700 X102.59 Y94.25
G1 F1500 E16.1319
G1 F700 X102.26 Y93.82 E16.14096
G1 F700 X99.66 Y90.36 E16.21341
G1 F700 X99.33 Y89.93 E16.22247
G0 F700 X98.83 Y89.93
G1 F700 X99.21 Y90.43 E16.23292
G1 F700 X102.21 Y94.42 E16.31652
G1 F700 X102.59 Y94.91 E16.32697
G0 F700 X102.35 Y95.26
G1 F700 X101.95 Y94.73 E16.33815
G1 F700 X98.73 Y90.46 E16.42764
G1 F700 X98.33 Y89.93 E16.43883
G0 F700 X97.83 Y89.93
G1 F700 X98.23 Y90.46 E16.45001
G1 F700 X101.45 Y94.73 E16.5395
G1 F700 X101.85 Y95.26 E16.55069
G0 F700 X101.35 Y95.26
G1 F700 X100.95 Y94.73 E16.56187
G1 F700 X97.73 Y90.46 E16.65136
G1 F700 X97.33 Y89.93 E16.66255
G0 F700 X96.83 Y89.93
G1 F700 X97.23 Y90.46 E16.67373
G1 F700 X100.45 Y94.73 E16.76322
G1 F700 X100.85 Y95.26 E16.77441
G0 F700 X100.35 Y95.26
G1 F700 X99.95 Y94.73 E16.78559
G1 F700 X96.73 Y90.46 E16.87508
G1 F700 X96.33 Y89.93 E16.88627
G0 F700 X95.83 Y89.93
G1 F700 X96.23 Y90.46 E16.89745
G1 F700 X99.45 Y94.73 E16.98694
G1 F700 X99.85 Y95.26 E16.99813
G0 F700 X99.35 Y95.26
G1 F700 X98.95 Y94.73 E17.00932
G1 F700 X95.73 Y90.46 E17.09881
G1 F700 X95.33 Y89.93 E17.11
G0 F700 X94.83 Y89.93
G1 F700 X95.23 Y90.46 E17.12118
G1 F700 X98.45 Y94.73 E17.21067
G1 F700 X98.85 Y95.26 E17.22186
G0 F700 X98.35 Y95.26
G1 F700 X97.94 Y94.73 E17.23304
G1 F700 X94.73 Y90.46 E17.32253
G1 F700 X94.32 Y89.93 E17.33372
G0 F700 X93.82 Y89.93
G1 F700 X94.23 Y90.46 E17.3449
G1 F700 X97.44 Y94.73 E17.43439
G1 F700 X97.85 Y95.26 E17.44558
G0 F700 X97.34 Y95.26
G1 F700 X96.94 Y94.73 E17.45676
G1 F700 X93.73 Y90.46 E17.54625
G1 F700 X93.32 Y89.93 E17.55744
G0 F700 X92.82 Y89.93
G1 F700 X93.22 Y90.46 E17.56863
G1 F700 X96.44 Y94.73 E17.65812
G1 F700 X96.84 Y95.26 E17.66931
G0 F700 X96.34 Y95.26
G1 F700 X95.94 Y94.73 E17.68049
G1 F700 X92.72 Y90.46 E17.76998
G1 F700 X92.32 Y89.93 E17.78117
G0 F700 X91.82 Y89.93
G1 F700 X92.22 Y90.46 E17.79235
G1 F700 X95.44 Y94.73 E17.88184
G1 F700 X95.84 Y95.26 E17.89303
G0 F700 X95.34 Y95.26
G1 F700 X94.94 Y94.73 E17.90421
G1 F700 X91.72 Y90.46 E17.9937
G1 F700 X91.32 Y89.93 E18.00489
G0 F700 X90.82 Y89.93
G1 F700 X91.22 Y90.46 E18.01607
G1 F700 X94.44 Y94.73 E18.10556
G1 F700 X94.84 Y95.26 E18.11675
G0 F700 X94.34 Y95.26
G1 F700 X93.94 Y94.73 E18.12793
G1 F700 X90.72 Y90.46 E18.21742
G1 F700 X90.32 Y89.93 E18.22861
G0 F700 X89.82 Y89.93
G1 F700 X90.22 Y90.46 E18.2398
G1 F700 X93.44 Y94.73 E18.32929
G1 F700 X93.84 Y95.26 E18.34048
G0 F700 X93.34 Y95.26
G1 F700 X92.94 Y94.73 E18.35166
G1 F700 X89.72 Y90.46 E18.44115
G1 F700 X89.32 Y89.93 E18.45234
G0 F700 X88.81 Y89.93
G1 F700 X89.22 Y90.46 E18.46352
G1 F700 X92.43 Y94.73 E18.55301
G1 F700 X92.84 Y95.26 E18.5642
G0 F700 X92.34 Y95.26
G1 F700 X91.93 Y94.73 E18.57538
G1 F700 X88.72 Y90.46 E18.66487
G1 F700 X88.31 Y89.93 E18.67606
G0 F700 X87.81 Y89.93
G1 F700 X88.21 Y90.46 E18.68724
G1 F700 X91.43 Y94.73 E18.77673
G1 F700 X91.83 Y95.26 E18.78792
G0 F700 X91.33 Y95.26
G1 F700 X90.93 Y94.73 E18.79911
G1 F700 X87.71 Y90.46 E18.8886
G1 F700 X87.31 Y89.93 E18.89979
G0 F700 X86.81 Y89.93
G1 F700 X87.21 Y90.46 E18.91097
G1 F700 X90.43 Y94.73 E19.00046
G1 F700 X90.83 Y95.26 E19.01165
G0 F700 X90.33 Y95.26
G1 F700 X89.93 Y94.73 E19.02283
G1 F700 X86.71 Y90.46 E19.11232
G1 F700 X86.31 Y89.93 E19.12351
G0 F700 X85.81 Y89.93
G1 F700 X86.21 Y90.46 E19.13469
G1 F700 X89.43 Y94.73 E19.22418
G1 F700 X89.83 Y95.26 E19.23537
G0 F700 X89.33 Y95.26
G1 F700 X88.93 Y94.73 E19.24655
G1 F700 X85.71 Y90.46 E19.33604
G1 F700 X85.31 Y89.93 E19.34723
G0 F700 X84.81 Y89.93
G1 F700 X85.21 Y90.46 E19.35842
G1 F700 X88.43 Y94.73 E19.44791
G1 F700 X88.83 Y95.26 E19.4591
G0 F700 X88.33 Y95.26
G1 F700 X87.93 Y94.73 E19.47028
G1 F700 X84.71 Y90.46 E19.55977
G1 F700 X84.31 Y89.93 E19.57096
G0 F700 X83.81 Y89.93
G1 F700 X84.21 Y90.46 E19.58214
G1 F700 X87.42 Y94.73 E19.67163
G1 F700 X87.83 Y95.26 E19.68282
G0 F700 X87.33 Y95.26
G1 F700 X86.92 Y94.73 E19.694
G1 F700 X83.71 Y90.46 E19.78349
G1 F700 X83.3 Y89.93 E19.79468
G0 F700 X83.24 Y90.51
G1 F700 X83.6 Y90.98 E19.80464
G1 F700 X86.47 Y94.79 E19.88441
G1 F700 X86.83 Y95.26 E19.89437
G0 F700 X86.32 Y95.26
G1 F700 X86.02 Y94.86 E19.90294
G1 F700 X83.55 Y91.58 E19.97157
G1 F700 X83.24 Y91.17 E19.98014
G1 F1500 E17.98013
G0 F700 X83.24 Y91.84
G1 F1500 E19.98013
G1 F700 X83.5 Y92.18 E19.98732
G1 F700 X85.56 Y94.92 E20.0448
G1 F700 X85.82 Y95.26 E20.05199
G0 F700 X85.32 Y95.26
G1 F700 X85.11 Y94.99 E20.05778
G1 F700 X83.45 Y92.78 E20.10412
G1 F700 X83.24 Y92.5 E20.10991
G1 F1500 E18.10991
G0 F700 X83.24 Y93.17
G1 F1500 E20.10991
G1 F700 X83.4 Y93.38 E20.11431
G1 F700 X84.66 Y95.06 E20.1495
G1 F700 X84.82 Y95.26 E20.1539
G0 F700 X84.32 Y95.26
G1 F700 X84.21 Y95.12 E20.15691
G1 F700 X83.35 Y93.97 E20.18095
G1 F700 X83.24 Y93.83 E20.18396
G1 F1500 E18.18396
G0 F700 X83.24 Y94.5
G1 F1500 E20.18396
G1 F700 X83.3 Y94.57 E20.18556
G1 F700 X83.76 Y95.19 E20.19845
G1 F700 X83.82 Y95.26 E20.20006
G0 F700 X83.32 Y95.26
G1 F700 X83.31 Y95.25 E20.20028
G1 F700 X83.25 Y95.17 E20.20203
G1 F700 X83.24 Y95.16 E20.20225
G1 F1500 E18.20225
G0 F700 X83.24 Y96.55
G1 F1500 E20.20225
G1 F700 X83.26 Y96.42 E20.20442
G1 F700 X83.42 Y95.39 E20.22178
G1 F700 X83.44 Y95.26 E20.22394
G0 F700 X83.85 Y95.26
G1 F700 X83.79 Y95.65 E20.23044
G1 F700 X83.3 Y98.72 E20.28252
G1 F700 X83.24 Y99.11 E20.28903
G1 F1500 E18.28903
G0 F700 X83.41 Y100.6
G1 F1500 E20.28903
G1 F700 X83.49 Y100.07 E20.29807
G1 F700 X84.17 Y95.8 E20.37042
G1 F700 X84.25 Y95.26 E20.37945
G0 F700 X84.66 Y95.26
G1 F700 X84.57 Y95.8 E20.38848
G1 F700 X83.9 Y100.07 E20.46083
G1 F700 X83.81 Y100.6 E20.46987
G0 F700 X84.22 Y100.6
G1 F700 X84.3 Y100.07 E20.47891
G1 F700 X84.98 Y95.8 E20.55126
G1 F700 X85.06 Y95.26 E20.56029
G0 F700 X85.47 Y95.26
G1 F700 X85.38 Y95.8 E20.56932
G1 F700 X84.71 Y100.07 E20.64167
G1 F700 X84.62 Y100.6 E20.65071
G0 F700 X85.03 Y100.6
G1 F700 X85.11 Y100.07 E20.65975
G1 F700 X85.79 Y95.8 E20.7321
G1 F700 X85.87 Y95.26 E20.74113
G0 F700 X86.28 Y95.26
G1 F700 X86.19 Y95.8 E20.75016
G1 F700 X85.52 Y100.07 E20.82251
G1 F700 X85.43 Y100.6 E20.83155
G0 F700 X85.84 Y100.6
G1 F700 X85.92 Y100.07 E20.84059
G1 F700 X86.6 Y95.8 E20.91294
G1 F700 X86.68 Y95.26 E20.92197
G0 F700 X87.09 Y95.26
G1 F700 X87.0 Y95.8 E20.93101
G1 F700 X86.33 Y100.07 E21.00336
G1 F700 X86.24 Y100.6 E21.0124
G0 F700 X86.65 Y100.6
G1 F700 X86.73 Y100.07 E21.02144
G1 F700 X87.41 Y95.8 E21.09379
G1 F700 X87.49 Y95.26 E21.10282
G0 F700 X87.9 Y95.26
G1 F700 X87.81 Y95.8 E21.11186
G1 F700 X87.14 Y100.07 E21.18421
G1 F700 X87.05 Y100.6 E21.19325
G0 F700 X87.46 Y100.6
G1 F700 X87.54 Y100.07 E21.20229
G1 F700 X88.22 Y95.8 E21.27464
G1 F700 X88.3 Y95.26 E21.28368
G0 F700 X88.71 Y95.26
G1 F700 X88.62 Y95.8 E21.29272
G1 F700 X87.95 Y100.07 E21.36507
G1 F700 X87.86 Y100.6 E21.37411
G0 F700 X88.27 Y100.6
G1 F700 X88.35 Y100.07 E21.38315
G1 F700 X89.03 Y95.8 E21.4555
G1 F700 X89.11 Y95.26 E21.46454
G0 F700 X89.52 Y95.26
G1 F700 X89.43 Y95.8 E21.47358
G1 F700 X88.76 Y100.07 E21.54593
G1 F700 X88.67 Y100.6 E21.55496
G0 F700 X89.08 Y100.6
G1 F700 X89.16 Y100.07 E21.564
G1 F700 X89.84 Y95.8 E21.63635
G1 F700 X89.92 Y95.26 E21.64539
G0 F700 X90.33 Y95.26
G1 F700 X90.24 Y95.8 E21.65443
G1 F700 X89.57 Y100.07 E21.72678
G1 F700 X89.48 Y100.6 E21.73582
G0 F700 X89.89 Y100.6
G1 F700 X89.97 Y100.07 E21.74486
G1 F700 X90.65 Y95.8 E21.81721
G1 F700 X90.73 Y95.26 E21.82625
G0 F700 X91.14 Y95.26
G1 F700 X91.05 Y95.8 E21.83529
G1 F700 X90.38 Y100.07 E21.90764
G1 F700 X90.29 Y100.6 E21.91668
G0 F700 X90.7 Y100.6
G1 F700 X90.78 Y100.07 E21.92572
G1 F700 X91.46 Y95.8 E21.99807
G1 F700 X91.54 Y95.26 E22.0071
G0 F700 X91.95 Y95.26
G1 F700 X91.86 Y95.8 E22.01614
G1 F700 X91.19 Y100.07 E22.08849
G1 F700 X91.1 Y100.6 E22.09753
G0 F700 X91.51 Y100.6
G1 F700 X91.59 Y100.07 E22.10657
G1 F700 X92.27 Y95.8 E22.17892
G1 F700 X92.35 Y95.26 E22.18796
G0 F700 X92.76 Y95.26
G1 F700 X92.67 Y95.8 E22.197
G1 F700 X92.0 Y100.07 E22.26935
G1 F700 X91.91 Y100.6 E22.27839
G0 F700 X92.32 Y100.6
G1 F700 X92.4 Y100.07 E22.28743
G1 F700 X93.08 Y95.8 E22.35978
G1 F700 X93.16 Y95.26 E22.36882
G0 F700 X93.57 Y95.26
G1 F700 X93.48 Y95.8 E22.37786
G1 F700 X92.81 Y100.07 E22.45021
G1 F700 X92.72 Y100.6 E22.45924
G0 F700 X93.13 Y100.6
G1 F700 X93.21 Y100.07 E22.46828
G1 F700 X93.89 Y95.8 E22.54063
G1 F700 X93.97 Y95.26 E22.54967
G0 F700 X94.38 Y95.26
G1 F700 X94.29 Y95.8 E22.55871
G1 F700 X93.62 Y100.07 E22.63106
G1 F700 X93.53 Y100.6 E22.6401
G0 F700 X93.94 Y100.6
G1 F700 X94.02 Y100.07 E22.64914
G1 F700 X94.7 Y95.8 E22.72149
G1 F700 X94.78 Y95.26 E22.73053
G0 F700 X95.19 Y95.26
G1 F700 X95.1 Y95.8 E22.73957
G1 F700 X94.43 Y100.07 E22.81192
G1 F700 X94.34 Y100.6 E22.82096
G0 F700 X94.75 Y100.6
G1 F700 X94.83 Y100.07 E22.83
G1 F700 X95.51 Y95.8 E22.90235
G1 F700 X95.59 Y95.26 E22.91138
G0 F700 X96.0 Y95.26
G1 F700 X95.91 Y95.8 E22.92042
G1 F700 X95.24 Y100.07 E22.99277
G1 F700 X95.15 Y100.6 E23.00181
G0 F700 X95.56 Y100.6
G1 F700 X95.64 Y100.07 E23.01085
G1 F700 X96.32 Y95.8 E23.0832
G1 F700 X96.4 Y95.26 E23.09224
G0 F700 X96.81 Y95.26
G1 F700 X96.72 Y95.8 E23.10128
G1 F700 X96.05 Y100.07 E23.17363
G1 F700 X95.96 Y100.6 E23.18267
G0 F700 X96.37 Y100.6
G1 F700 X96.45 Y100.07 E23.19171
G1 F700 X97.13 Y95.8 E23.26406
G1 F700 X97.21 Y95.26 E23.2731
G0 F700 X97.62 Y95.26
G1 F700 X97.53 Y95.8 E23.28214
G1 F700 X96.86 Y100.07 E23.35449
G1 F700 X96.77 Y100.6 E23.36352
G0 F700 X97.18 Y100.6
G1 F700 X97.26 Y100.07 E23.37256
G1 F700 X97.94 Y95.8 E23.44491
G1 F700 X98.02 Y95.26 E23.45395
G0 F700 X98.43 Y95.26
G1 F700 X98.34 Y95.8 E23.46299
G1 F700 X97.67 Y100.07 E23.53534
G1 F700 X97.58 Y100.6 E23.54438
G0 F700 X97.99 Y100.6
G1 F700 X98.07 Y100.07 E23.55342
G1 F700 X98.75 Y95.8 E23.62577
G1 F700 X98.83 Y95.26 E23.63481
G0 F700 X99.24 Y95.26
G1 F700 X99.15 Y95.8 E23.64385
G1 F700 X98.48 Y100.07 E23.7162
G1 F700 X98.39 Y100.6 E23.72524
G0 F700 X98.8 Y100.6
G1 F700 X98.88 Y100.07 E23.73428
G1 F700 X99.56 Y95.8 E23.80663
G1 F700 X99.64 Y95.26 E23.81566
G0 F700 X100.05 Y95.26
G1 F700 X99.96 Y95.8 E23.8247
G1 F700 X99.29 Y100.07 E23.89705
G1 F700 X99.2 Y100.6 E23.90609
G0 F700 X99.61 Y100.6
G1 F700 X99.69 Y100.07 E23.91513
G1 F700 X100.37 Y95.8 E23.98748
G1 F700 X100.45 Y95.26 E23.99652
G0 F700 X100.86 Y95.26
G1 F700 X100.77 Y95.8 E24.00556
G1 F700 X100.1 Y100.07 E24.07791
G1 F700 X100.01 Y100.6 E24.08695
G0 F700 X100.42 Y100.6
G1 F700 X100.5 Y100.07 E24.09599
G1 F700 X101.18 Y95.8 E24.16834
G1 F700 X101.26 Y95.26 E24.17738
G0 F700 X101.67 Y95.26
G1 F700 X101.58 Y95.8 E24.18642
G1 F700 X100.91 Y100.07 E24.25877
G1 F700 X100.82 Y100.6 E24.2678
G0 F700 X101.23 Y100.6
G1 F700 X101.31 Y100.07 E24.27684
G1 F700 X101.99 Y95.8 E24.34919
G1 F700 X102.07 Y95.26 E24.35823
G0 F700 X102.48 Y95.26
G1 F700 X102.39 Y95.8 E24.36727
G1 F700 X101.72 Y100.07 E24.43962
G1 F700 X101.63 Y100.6 E24.44866
G0 F700 X102.04 Y100.6
G1 F700 X102.09 Y100.25 E24.45458
G1 F700 X102.53 Y97.46 E24.50196
G1 F700 X102.59 Y97.11 E24.50788
G1 F1500 E22.50788
G0 F700 X102.59 Y99.67
G1 F1500 E24.50788
G1 F700 X102.58 Y99.76 E24.50946
G1 F700 X102.46 Y100.51 E24.52212
G1 F700 X102.44 Y100.6 E24.5237
G1 F1500 E22.5237
G0 F700 X83.24 Y101.21
G1 F1500 E24.5237
G1 F700 X83.26 Y101.15 E24.52479
G1 F700 X83.43 Y100.66 E24.5335
G1 F700 X83.45 Y100.6 E24.53459
G0 F700 X83.87 Y100.6
G1 F700 X83.81 Y100.78 E24.53786
G1 F700 X83.3 Y102.26 E24.56397
G1 F700 X83.24 Y102.44 E24.56724
G1 F1500 E22.56724
G0 F700 X83.24 Y103.67
G1 F1500 E24.56724
G1 F700 X83.35 Y103.37 E24.57268
G1 F700 X84.19 Y100.91 E24.61622
G1 F700 X84.3 Y100.6 E24.62166
G0 F700 X84.72 Y100.6
G1 F700 X84.57 Y101.03 E24.62928
G1 F700 X83.39 Y104.47 E24.69023
G1 F700 X83.24 Y104.9 E24.69785
G1 F1500 E22.69785
G0 F700 X83.31 Y105.94
G1 F1500 E24.69785
G1 F700 X83.49 Y105.4 E24.7073
G1 F700 X84.96 Y101.13 E24.78287
G1 F700 X85.14 Y100.6 E24.79232
G0 F700 X85.57 Y100.6
G1 F700 X85.38 Y101.13 E24.80177
G1 F700 X83.91 Y105.4 E24.87734
G1 F700 X83.73 Y105.94 E24.88679
G0 F700 X84.15 Y105.94
G1 F700 X84.34 Y105.4 E24.89624
G1 F700 X85.81 Y101.13 E24.97181
G1 F700 X85.99 Y100.6 E24.98126
G0 F700 X86.41 Y100.6
G1 F700 X86.23 Y101.13 E24.99071
G1 F700 X84.76 Y105.4 E25.06628
G1 F700 X84.58 Y105.94 E25.07573
G0 F700 X85.0 Y105.94
G1 F700 X85.18 Y105.4 E25.08518
G1 F700 X86.65 Y101.13 E25.16075
G1 F700 X86.84 Y100.6 E25.1702
G0 F700 X87.26 Y100.6
G1 F700 X87.08 Y101.13 E25.17965
G1 F700 X85.61 Y105.4 E25.25522
G1 F700 X85.42 Y105.94 E25.26467
G0 F700 X85.85 Y105.94
G1 F700 X86.03 Y105.4 E25.27412
G1 F700 X87.5 Y101.13 E25.34969
G1 F700 X87.68 Y100.6 E25.35914
G0 F700 X88.1 Y100.6
G1 F700 X87.92 Y101.13 E25.36859
G1 F700 X86.45 Y105.4 E25.44416
G1 F700 X86.27 Y105.94 E25.45361
G0 F700 X86.69 Y105.94
G1 F700 X86.88 Y105.4 E25.46306
G1 F700 X88.34 Y101.13 E25.53863
G1 F700 X88.53 Y100.6 E25.54808
G0 F700 X88.95 Y100.6
G1 F700 X88.77 Y101.13 E25.55753
G1 F700 X87.3 Y105.4 E25.6331
G1 F700 X87.11 Y105.94 E25.64255
G0 F700 X87.54 Y105.94
G1 F700 X87.72 Y105.4 E25.652
G1 F700 X89.19 Y101.13 E25.72757
G1 F700 X89.37 Y100.6 E25.73702
G0 F700 X89.8 Y100.6
G1 F700 X89.61 Y101.13 E25.74647
G1 F700 X88.14 Y105.4 E25.82203
G1 F700 X87.96 Y105.94 E25.83148
G0 F700 X88.38 Y105.94
G1 F700 X88.57 Y105.4 E25.84093
G1 F700 X90.04 Y101.13 E25.9165
G1 F700 X90.22 Y100.6 E25.92595
G0 F700 X90.64 Y100.6
G1 F700 X90.46 Y101.13 E25.9354
G1 F700 X88.99 Y105.4 E26.01097
G1 F700 X88.81 Y105.94 E26.02042
